ix/user-octagon_outline.svg

<svg viewBox="0 0 24 24" fill="none" xmlns="http://www.w3.org/2000/svg" height="1em" width="1em">
  <path d="M12.0002 22.7501C11.3302 22.7501 10.6502 22.5801 10.0502 22.2301L4.11016 18.8001C2.91016 18.1001 2.16016 16.8101 2.16016 15.4201V8.58011C2.16016 7.19011 2.91016 5.90011 4.11016 5.20011L10.0502 1.77012C11.2502 1.07012 12.7402 1.07012 13.9502 1.77012L19.8902 5.20011C21.0902 5.90011 21.8402 7.19011 21.8402 8.58011V15.4201C21.8402 16.8101 21.0902 18.1001 19.8902 18.8001L13.9502 22.2301C13.3502 22.5801 12.6702 22.7501 12.0002 22.7501ZM12.0002 2.7501C11.5902 2.7501 11.1702 2.8601 10.8002 3.0701L4.86016 6.5001C4.12016 6.9301 3.66016 7.72011 3.66016 8.58011V15.4201C3.66016 16.2701 4.12016 17.0701 4.86016 17.5001L10.8002 20.9301C11.5402 21.3601 12.4602 21.3601 13.2002 20.9301L19.1402 17.5001C19.8802 17.0701 20.3402 16.2801 20.3402 15.4201V8.58011C20.3402 7.73011 19.8802 6.9301 19.1402 6.5001L13.2002 3.0701C12.8302 2.8601 12.4102 2.7501 12.0002 2.7501Z" fill="#292D32"/>
  <path d="M11.9999 11.7501C10.2999 11.7501 8.91992 10.37 8.91992 8.67004C8.91992 6.97004 10.2999 5.59009 11.9999 5.59009C13.6999 5.59009 15.0799 6.97004 15.0799 8.67004C15.0799 10.37 13.6999 11.7501 11.9999 11.7501ZM11.9999 7.09009C11.1299 7.09009 10.4199 7.80004 10.4199 8.67004C10.4199 9.54004 11.1299 10.2501 11.9999 10.2501C12.8699 10.2501 13.5799 9.54004 13.5799 8.67004C13.5799 7.80004 12.8699 7.09009 11.9999 7.09009Z" fill="#292D32"/>
  <path d="M16 17.4101C15.59 17.4101 15.25 17.0701 15.25 16.6601C15.25 15.2801 13.79 14.1501 12 14.1501C10.21 14.1501 8.75 15.2801 8.75 16.6601C8.75 17.0701 8.41 17.4101 8 17.4101C7.59 17.4101 7.25 17.0701 7.25 16.6601C7.25 14.4501 9.38 12.6501 12 12.6501C14.62 12.6501 16.75 14.4501 16.75 16.6601C16.75 17.0701 16.41 17.4101 16 17.4101Z" fill="#292D32"/>
</svg>

<svg viewBox="0 0 24 24" fill="none" xmlns="http://www.w3.org/2000/svg" height="1em" width="1em">
  <path d="M12 22.75c-.67 0-1.35-.17-1.95-.52L4.11 18.8c-1.2-.7-1.95-1.99-1.95-3.38V8.58c0-1.39.75-2.68 1.95-3.38l5.94-3.43c1.2-.7 2.69-.7 3.9 0l5.94 3.43c1.2.7 1.95 1.99 1.95 3.38v6.84c0 1.39-.75 2.68-1.95 3.38l-5.94 3.43c-.6.35-1.28.52-1.95.52Zm0-20c-.41 0-.83.11-1.2.32L4.86 6.5c-.74.43-1.2 1.22-1.2 2.08v6.84c0 .85.46 1.65 1.2 2.08l5.94 3.43c.74.43 1.66.43 2.4 0l5.94-3.43c.74-.43 1.2-1.22 1.2-2.08V8.58c0-.85-.46-1.65-1.2-2.08L13.2 3.07c-.37-.21-.79-.32-1.2-.32Z" fill="#292D32"/>
  <path d="M12 11.75c-1.7 0-3.08-1.38-3.08-3.08 0-1.7 1.38-3.08 3.08-3.08 1.7 0 3.08 1.38 3.08 3.08 0 1.7-1.38 3.08-3.08 3.08Zm0-4.66c-.87 0-1.58.71-1.58 1.58 0 .87.71 1.58 1.58 1.58.87 0 1.58-.71 1.58-1.58 0-.87-.71-1.58-1.58-1.58Zm4 10.32c-.41 0-.75-.34-.75-.75 0-1.38-1.46-2.51-3.25-2.51s-3.25 1.13-3.25 2.51c0 .41-.34.75-.75.75s-.75-.34-.75-.75c0-2.21 2.13-4.01 4.75-4.01s4.75 1.8 4.75 4.01c0 .41-.34.75-.75.75Z" fill="#292D32"/>
</svg>
